PortableApps/LibreOfficePortable/App/libreoffice/help/media/icon-themes/cmd/sc_quit.svg

<svg viewBox="0 0 16 16" xmlns="http://www.w3.org/2000/svg"><path d="m8 1a7 7 0 0 0 -7 7 7 7 0 0 0 7 7 7 7 0 0 0 7-7 7 7 0 0 0 -7-7z" fill="#e68497"/><path d="m8 2c-.554 0-1 .446-1 1v3c0 .554.446 1 1 1s1-.446 1-1v-3c0-.554-.446-1-1-1zm-2 1.4199219a5 5 0 0 0 -3 4.5800781 5 5 0 0 0 5 5 5 5 0 0 0 5-5 5 5 0 0 0 -3-4.5761719v1.1171875a4 4 0 0 1 2 3.4589844 4 4 0 0 1 -4 4 4 4 0 0 1 -4-4 4 4 0 0 1 2-3.4589844z" fill="#fff"/></svg>

<svg viewBox="0 0 16 16" xmlns="http://www.w3.org/2000/svg">
  <path
     style="fill:#e68497"
     d="M 8 1 A 7 7 0 0 0 1 8 A 7 7 0 0 0 8 15 A 7 7 0 0 0 15 8 A 7 7 0 0 0 8 1 z "
     />
  <path
     style="fill:#ffffff"
     d="M 8 2 C 7.446 2 7 2.446 7 3 L 7 6 C 7 6.554 7.446 7 8 7 C 8.554 7 9 6.554 9 6 L 9 3 C 9 2.446 8.554 2 8 2 z M 6 3.4199219 A 5 5 0 0 0 3 8 A 5 5 0 0 0 8 13 A 5 5 0 0 0 13 8 A 5 5 0 0 0 10 3.4238281 L 10 4.5410156 A 4 4 0 0 1 12 8 A 4 4 0 0 1 8 12 A 4 4 0 0 1 4 8 A 4 4 0 0 1 6 4.5410156 L 6 3.4199219 z "
     />
</svg>
